X: 32671
T: Poison Ivy Leaf, The
R: reel
M: 4/4
K: Edorian
|:E3D EFGA|B2 eB dBGB|A3B =cBAc|BAGB AFDF|
E3D EFGA|B2 eB dBGB|AB=cA BAGB|AFDE FE E2:|
|:eg3 eB3|efge fedg|eg3 eB3|dBAF GE3|
E3D EFGA|Bdef efga|bgaf gfec|dBAF GE3:|

